resources/images/flag.svg

<svg xmlns="http://www.w3.org/2000/svg" xmlns:xlink="http://www.w3.org/1999/xlink" preserveAspectRatio="none" width="285" height="427" viewBox="0 0 285 427"><defs><linearGradient id="a" gradientUnits="userSpaceOnUse" x1="12.413" y1="213.75" x2="27.788" y2="213.75" spreadMethod="pad"><stop offset="30.588%" stop-color="#333"/><stop offset="63.529%" stop-color="#666"/><stop offset="84.706%" stop-color="#333"/></linearGradient><g id="b"><path fill="url(#a)" d="M27.8 91.75q-8.7-5.15-15.4 0V338.4h15.4v-83.75h-.05V97.05h.05v-5.3z"/><path fill="#7BA65B" d="M233.85 102.35q-12.25-.4-27.95-1.15-24.15-1.35-37.45-1.95-.1-.05-.2-.05h-.5q-.05-.1-.1 0-.15-.1-.3 0-.05-.05-.1 0-.2-.1-.4-.1h-1.5q-6.15-.25-10.8-.2-29.7.2-59.45-.65-40.15-1.25-60.55-2-1.1-.05-3.3.4-2.3.5-3.45.4h-.05v157.6h.05q1.25.1 3.5.8 2.25.7 3.25.75 29.55 3 59.35 2.25 21.65-1 48.35.4h15.3L198 260.3q43.95 1.35 61.65 1.25 6.6-.05 10.95-2.35l2-158.75q-2.7.95-5.55 1.6l-5.8.7q-5.15.05-11.9.05l-15.5-.45z"/><path fill="#3A8B18" fill-opacity=".302" d="M169.1 99.25h-.35q.878.016 1.45 0h-1.1z"/></g><path id="c" stroke="#000" stroke-width="2" stroke-linejoin="round" stroke-linecap="round" fill="none" d="M168.45 99.25q13.3.6 37.45 1.95 15.7.75 27.95 1.15l15.5.45q6.75 0 11.9-.05l5.8-.7q2.85-.65 5.55-1.6l-2 158.75q-4.35 2.3-10.95 2.35-17.7.1-61.65-1.25l-40.45-1.45h-15.3q-26.7-1.4-48.35-.4-29.8.75-59.35-2.25-1-.05-3.25-.75t-3.5-.8v83.75H12.4V91.75q6.7-5.15 15.4 0v5.3q1.15.1 3.45-.4 2.2-.45 3.3-.4 20.4.75 60.55 2 29.75.85 59.45.65 4.65-.05 10.8.2h1.5q.2 0 .4.1m.1 0q.15-.1.3 0 .05-.1.1 0m.15 0h.35q.1 0 .2.05H169.1M27.8 254.65h-.05V97.05h.05"/></defs><g><use xlink:href="#b"/><use xlink:href="#c"/></g></svg>

<svg xmlns="http://www.w3.org/2000/svg" version="1.1" xmlns:xlink="http://www.w3.org/1999/xlink" preserveAspectRatio="none" x="0px" y="0px" width="285px" height="427px" viewBox="0 0 285 427">
<defs>
<linearGradient id="Gradient_1" gradientUnits="userSpaceOnUse" x1="12.412500000000001" y1="213.75" x2="27.7875" y2="213.75" spreadMethod="pad">
<stop  offset="30.58823529411765%" stop-color="#333333"/>

<stop  offset="63.529411764705884%" stop-color="#666666"/>

<stop  offset="84.70588235294117%" stop-color="#333333"/>
</linearGradient>

<g id="Layer0_0_FILL">
<path fill="url(#Gradient_1)" stroke="none" d="
M 27.8 91.75
Q 19.1 86.6 12.4 91.75
L 12.4 338.4 27.8 338.4 27.8 254.65 27.75 254.65 27.75 97.05 27.8 97.05 27.8 91.75 Z"/>

<path fill="#7BA65B" stroke="none" d="
M 233.85 102.35
Q 221.6 101.95 205.9 101.2 181.75 99.85 168.45 99.25 168.35 99.2 168.25 99.2 168.128125 99.2 168.05 99.2
L 167.9 99.2 167.75 99.2
Q 167.7 99.1 167.65 99.2 167.5 99.1 167.35 99.2 167.3 99.15 167.25 99.2 167.05 99.1 166.85 99.1
L 165.35 99.1
Q 159.2 98.85 154.55 98.9 124.85 99.1 95.1 98.25 54.95 97 34.55 96.25 33.45 96.2 31.25 96.65 28.95 97.15 27.8 97.05
L 27.75 97.05 27.75 254.65 27.8 254.65
Q 29.05 254.75 31.3 255.45 33.55 256.15 34.55 256.2 64.1 259.2 93.9 258.45 115.55 257.45 142.25 258.85
L 157.55 258.85 198 260.3
Q 241.95 261.65 259.65 261.55 266.25 261.5 270.6 259.2
L 272.6 100.45
Q 269.9 101.4 267.05 102.05
L 261.25 102.75
Q 256.1 102.8 249.35 102.8 241.6 102.575 233.85 102.35 Z"/>

<path fill="#3A8B18" fill-opacity="0.30196078431372547" stroke="none" d="
M 169.1 99.25
Q 168.9 99.25 168.75 99.25 169.6279296875 99.2662109375 170.2 99.25 169.65 99.25 169.1 99.25 Z"/>
</g>

<path id="Layer0_0_1_STROKES" stroke="#000000" stroke-width="2" stroke-linejoin="round" stroke-linecap="round" fill="none" d="
M 168.45 99.25
Q 181.75 99.85 205.9 101.2 221.6 101.95 233.85 102.35 241.6 102.575 249.35 102.8 256.1 102.8 261.25 102.75
L 267.05 102.05
Q 269.9 101.4 272.6 100.45
L 270.6 259.2
Q 266.25 261.5 259.65 261.55 241.95 261.65 198 260.3
L 157.55 258.85 142.25 258.85
Q 115.55 257.45 93.9 258.45 64.1 259.2 34.55 256.2 33.55 256.15 31.3 255.45 29.05 254.75 27.8 254.65
L 27.8 338.4 12.4 338.4 12.4 91.75
Q 19.1 86.6 27.8 91.75
L 27.8 97.05
Q 28.95 97.15 31.25 96.65 33.45 96.2 34.55 96.25 54.95 97 95.1 98.25 124.85 99.1 154.55 98.9 159.2 98.85 165.35 99.1
L 166.85 99.1
Q 167.05 99.1 167.25 99.2
M 167.35 99.2
Q 167.5 99.1 167.65 99.2 167.7 99.1 167.75 99.2
M 167.9 99.2
L 168.05 99.2
Q 168.128125 99.2 168.25 99.2 168.35 99.2 168.45 99.25 168.586328125 99.251171875 168.75 99.25 168.9 99.25 169.1 99.25
M 27.8 254.65
L 27.75 254.65 27.75 97.05 27.8 97.05"/>
</defs>

<g transform="matrix( 1, 0, 0, 1, 0,0) ">
<use xlink:href="#Layer0_0_FILL"/>

<use xlink:href="#Layer0_0_1_STROKES"/>
</g>
</svg>
